content/blogs/regnskap/regnskapskvartaler-q1-q4/regnskapskvartaler-kpier.svg

<svg xmlns="http://www.w3.org/2000/svg" width="800" height="700"><defs><linearGradient id="b" x1="0%" x2="100%" y1="0%" y2="100%"><stop offset="0%" style="stop-color:#673ab7;stop-opacity:1"/><stop offset="100%" style="stop-color:#512da8;stop-opacity:1"/></linearGradient><filter id="a" width="140%" height="140%" x="-20%" y="-20%"><feDropShadow dx="2" dy="2" flood-color="#000" flood-opacity=".3" stdDeviation="3"/></filter></defs><path fill="#f8f9fa" d="M0 0h800v700H0z"/><text x="400" y="40" fill="#2c3e50" font-family="Arial, sans-serif" font-size="24" font-weight="bold" text-anchor="middle">
    Kvartalsvise Nøkkeltall og KPIer
  </text><text x="200" y="80" fill="#2c3e50" font-family="Arial, sans-serif" font-size="18" font-weight="bold">
    Finansielle Nøkkeltall
  </text><rect width="300" height="160" x="50" y="100" fill="#fff" stroke="#673ab7" stroke-width="2" filter="url(#a)" rx="8"/><rect width="300" height="30" x="50" y="100" fill="url(#b)" rx="8"/><text x="200" y="120" fill="#fff" font-family="Arial, sans-serif" font-size="14" font-weight="bold" text-anchor="middle">
    Lønnsomhetsmål
  </text><text x="70" y="150" fill="#333" font-family="Arial, sans-serif" font-size="12" font-weight="bold">Bruttofortjeneste margin:</text><text x="320" y="150" fill="#4caf50" font-family="Arial, sans-serif" font-size="12" text-anchor="end">42.5%</text><text x="70" y="170" fill="#333" font-family="Arial, sans-serif" font-size="12" font-weight="bold">EBITDA margin:</text><text x="320" y="170" fill="#4caf50" font-family="Arial, sans-serif" font-size="12" text-anchor="end">18.2%</text><text x="70" y="190" fill="#333" font-family="Arial, sans-serif" font-size="12" font-weight="bold">Nettoresultat margin:</text><text x="320" y="190" fill="#4caf50" font-family="Arial, sans-serif" font-size="12" text-anchor="end">12.8%</text><text x="70" y="210" fill="#333" font-family="Arial, sans-serif" font-size="12" font-weight="bold">ROE (annualisert):</text><text x="320" y="210" fill="#4caf50" font-family="Arial, sans-serif" font-size="12" text-anchor="end">16.4%</text><text x="70" y="230" fill="#333" font-family="Arial, sans-serif" font-size="12" font-weight="bold">EPS (NOK):</text><text x="320" y="230" fill="#4caf50" font-family="Arial, sans-serif" font-size="12" text-anchor="end">12.45</text><text x="70" y="250" fill="#666" font-family="Arial, sans-serif" font-size="10">vs. Q-1: ↗ 5.2%  |  vs. Q4 2023: ↗ 12.1%</text><rect width="300" height="160" x="370" y="100" fill="#fff" stroke="#2196f3" stroke-width="2" filter="url(#a)" rx="8"/><rect width="300" height="30" x="370" y="100" fill="#2196f3" rx="8"/><text x="520" y="120" fill="#fff" font-family="Arial, sans-serif" font-size="14" font-weight="bold" text-anchor="middle">
    Effektivitetsmål
  </text><text x="390" y="150" fill="#333" font-family="Arial, sans-serif" font-size="12" font-weight="bold">Vareomløpshastighet:</text><text x="640" y="150" fill="#ff9800" font-family="Arial, sans-serif" font-size="12" text-anchor="end">4.2x</text><text x="390" y="170" fill="#333" font-family="Arial, sans-serif" font-size="12" font-weight="bold">Fordringer omløpstid:</text><text x="640" y="170" fill="#4caf50" font-family="Arial, sans-serif" font-size="12" text-anchor="end">28 dager</text><text x="390" y="190" fill="#333" font-family="Arial, sans-serif" font-size="12" font-weight="bold">Leverandørgjeld betalingstid:</text><text x="640" y="190" fill="#4caf50" font-family="Arial, sans-serif" font-size="12" text-anchor="end">35 dager</text><text x="390" y="210" fill="#333" font-family="Arial, sans-serif" font-size="12" font-weight="bold">Working Capital ratio:</text><text x="640" y="210" fill="#4caf50" font-family="Arial, sans-serif" font-size="12" text-anchor="end">1.8</text><text x="390" y="230" fill="#333" font-family="Arial, sans-serif" font-size="12" font-weight="bold">Asset turnover:</text><text x="640" y="230" fill="#4caf50" font-family="Arial, sans-serif" font-size="12" text-anchor="end">1.3x</text><text x="390" y="250" fill="#666" font-family="Arial, sans-serif" font-size="10">vs. Q-1: ↗ 2.1%  |  vs. bransje: ↗ Above avg</text><rect width="300" height="140" x="50" y="280" fill="#fff" stroke="#4caf50" stroke-width="2" filter="url(#a)" rx="8"/><rect width="300" height="30" x="50" y="280" fill="#4caf50" rx="8"/><text x="200" y="300" fill="#fff" font-family="Arial, sans-serif" font-size="14" font-weight="bold" text-anchor="middle">
    Likviditetsmål
  </text><text x="70" y="330" fill="#333" font-family="Arial, sans-serif" font-size="12" font-weight="bold">Current ratio:</text><text x="320" y="330" fill="#4caf50" font-family="Arial, sans-serif" font-size="12" text-anchor="end">2.1</text><text x="70" y="350" fill="#333" font-family="Arial, sans-serif" font-size="12" font-weight="bold">Quick ratio:</text><text x="320" y="350" fill="#4caf50" font-family="Arial, sans-serif" font-size="12" text-anchor="end">1.4</text><text x="70" y="370" fill="#333" font-family="Arial, sans-serif" font-size="12" font-weight="bold">Operasjonell kontantstrøm:</text><text x="320" y="370" fill="#4caf50" font-family="Arial, sans-serif" font-size="12" text-anchor="end">NOK 45M</text><text x="70" y="390" fill="#333" font-family="Arial, sans-serif" font-size="12" font-weight="bold">Fri kontantstrøm:</text><text x="320" y="390" fill="#4caf50" font-family="Arial, sans-serif" font-size="12" text-anchor="end">NOK 32M</text><text x="70" y="410" fill="#666" font-family="Arial, sans-serif" font-size="10">vs. Q-1: ↗ 8.5%  |  vs. Q4 2023: ↗ 15.2%</text><text x="520" y="320" fill="#2c3e50" font-family="Arial, sans-serif" font-size="18" font-weight="bold">
    Operasjonelle KPIer
  </text><rect width="300" height="140" x="370" y="340" fill="#fff" stroke="#ff9800" stroke-width="2" filter="url(#a)" rx="8"/><rect width="300" height="30" x="370" y="340" fill="#ff9800" rx="8"/><text x="520" y="360" fill="#fff" font-family="Arial, sans-serif" font-size="14" font-weight="bold" text-anchor="middle">
    Kunde &amp; Marked
  </text><text x="390" y="390" fill="#333" font-family="Arial, sans-serif" font-size="12" font-weight="bold">Kundetilfredshet (NPS):</text><text x="640" y="390" fill="#4caf50" font-family="Arial, sans-serif" font-size="12" text-anchor="end">68</text><text x="390" y="410" fill="#333" font-family="Arial, sans-serif" font-size="12" font-weight="bold">Markedsandel:</text><text x="640" y="410" fill="#4caf50" font-family="Arial, sans-serif" font-size="12" text-anchor="end">24.5%</text><text x="390" y="430" fill="#333" font-family="Arial, sans-serif" font-size="12" font-weight="bold">Kunde oppbevaringsrate:</text><text x="640" y="430" fill="#4caf50" font-family="Arial, sans-serif" font-size="12" text-anchor="end">87%</text><text x="390" y="450" fill="#333" font-family="Arial, sans-serif" font-size="12" font-weight="bold">Ny kunder (antall):</text><text x="640" y="450" fill="#4caf50" font-family="Arial, sans-serif" font-size="12" text-anchor="end">1,245</text><text x="390" y="470" fill="#666" font-family="Arial, sans-serif" font-size="10">vs. Q-1: ↗ 3.2%  |  vs. mål: ↗ 102%</text><text x="400" y="520" fill="#2c3e50" font-family="Arial, sans-serif" font-size="18" font-weight="bold" text-anchor="middle">
    KPI Trendutvikling (Siste 4 Kvartaler)
  </text><rect width="600" height="120" x="100" y="540" fill="#fff" stroke="#ddd" rx="5"/><path stroke="#333" stroke-width="2" d="M130 570v70M130 640h540"/><text x="200" y="655" fill="#666" font-family="Arial, sans-serif" font-size="10" text-anchor="middle">Q1 2024</text><text x="350" y="655" fill="#666" font-family="Arial, sans-serif" font-size="10" text-anchor="middle">Q2 2024</text><text x="500" y="655" fill="#666" font-family="Arial, sans-serif" font-size="10" text-anchor="middle">Q3 2024</text><text x="650" y="655" fill="#666" font-family="Arial, sans-serif" font-size="10" text-anchor="middle">Q4 2024</text><path fill="none" stroke="#2196f3" stroke-width="3" d="m200 620 150-10 150-15 150-10" filter="url(#a)"/><text x="180" y="615" fill="#2196f3" font-family="Arial, sans-serif" font-size="8">Omsetning</text><path fill="none" stroke="#4caf50" stroke-width="3" d="m200 610 150-10 150-10 150-10" filter="url(#a)"/><text x="180" y="605" fill="#4caf50" font-family="Arial, sans-serif" font-size="8">Resultat</text><path fill="none" stroke="#ff9800" stroke-width="3" d="m200 600 150-5 150 5 150-10" filter="url(#a)"/><text x="180" y="595" fill="#ff9800" font-family="Arial, sans-serif" font-size="8">Markedsandel</text><circle cx="200" cy="620" r="3" fill="#2196f3"/><circle cx="350" cy="610" r="3" fill="#2196f3"/><circle cx="500" cy="595" r="3" fill="#2196f3"/><circle cx="650" cy="585" r="3" fill="#2196f3"/><circle cx="200" cy="610" r="3" fill="#4caf50"/><circle cx="350" cy="600" r="3" fill="#4caf50"/><circle cx="500" cy="590" r="3" fill="#4caf50"/><circle cx="650" cy="580" r="3" fill="#4caf50"/><circle cx="200" cy="600" r="3" fill="#ff9800"/><circle cx="350" cy="595" r="3" fill="#ff9800"/><circle cx="500" cy="600" r="3" fill="#ff9800"/><circle cx="650" cy="590" r="3" fill="#ff9800"/><text x="400" y="690" fill="#2c3e50" font-family="Arial, sans-serif" font-size="14" font-weight="bold" text-anchor="middle">
    Ytelsesindikatorstatuser
  </text><circle cx="200" cy="680" r="8" fill="#4caf50"/><text x="220" y="685" fill="#333" font-family="Arial, sans-serif" font-size="12">Over mål</text><circle cx="320" cy="680" r="8" fill="#ff9800"/><text x="340" y="685" fill="#333" font-family="Arial, sans-serif" font-size="12">På mål</text><circle cx="430" cy="680" r="8" fill="#f44336"/><text x="450" y="685" fill="#333" font-family="Arial, sans-serif" font-size="12">Under mål</text><circle cx="560" cy="680" r="8" fill="#9e9e9e"/><text x="580" y="685" fill="#333" font-family="Arial, sans-serif" font-size="12">Ingen data</text></svg>

<svg width="800" height="700" xmlns="http://www.w3.org/2000/svg">
  <defs>
    <linearGradient id="kpiGradient" x1="0%" y1="0%" x2="100%" y2="100%">
      <stop offset="0%" style="stop-color:#673ab7;stop-opacity:1" />
      <stop offset="100%" style="stop-color:#512da8;stop-opacity:1" />
    </linearGradient>
    <filter id="shadow" x="-20%" y="-20%" width="140%" height="140%">
      <feDropShadow dx="2" dy="2" stdDeviation="3" flood-color="#000000" flood-opacity="0.3"/>
    </filter>
  </defs>
  

  <rect width="800" height="700" fill="#f8f9fa"/>
  

  <text x="400" y="40" font-family="Arial, sans-serif" font-size="24" font-weight="bold" text-anchor="middle" fill="#2c3e50">
    Kvartalsvise Nøkkeltall og KPIer
  </text>
  

  <text x="200" y="80" font-family="Arial, sans-serif" font-size="18" font-weight="bold" fill="#2c3e50">
    Finansielle Nøkkeltall
  </text>
  

  <rect x="50" y="100" width="300" height="160" fill="white" stroke="#673ab7" stroke-width="2" rx="8" filter="url(#shadow)"/>
  <rect x="50" y="100" width="300" height="30" fill="url(#kpiGradient)" rx="8"/>
  <text x="200" y="120" font-family="Arial, sans-serif" font-size="14" font-weight="bold" text-anchor="middle" fill="white">
    Lønnsomhetsmål
  </text>
  

  <text x="70" y="150" font-family="Arial, sans-serif" font-size="12" font-weight="bold" fill="#333">Bruttofortjeneste margin:</text>
  <text x="320" y="150" font-family="Arial, sans-serif" font-size="12" text-anchor="end" fill="#4caf50">42.5%</text>
  
  <text x="70" y="170" font-family="Arial, sans-serif" font-size="12" font-weight="bold" fill="#333">EBITDA margin:</text>
  <text x="320" y="170" font-family="Arial, sans-serif" font-size="12" text-anchor="end" fill="#4caf50">18.2%</text>
  
  <text x="70" y="190" font-family="Arial, sans-serif" font-size="12" font-weight="bold" fill="#333">Nettoresultat margin:</text>
  <text x="320" y="190" font-family="Arial, sans-serif" font-size="12" text-anchor="end" fill="#4caf50">12.8%</text>
  
  <text x="70" y="210" font-family="Arial, sans-serif" font-size="12" font-weight="bold" fill="#333">ROE (annualisert):</text>
  <text x="320" y="210" font-family="Arial, sans-serif" font-size="12" text-anchor="end" fill="#4caf50">16.4%</text>
  
  <text x="70" y="230" font-family="Arial, sans-serif" font-size="12" font-weight="bold" fill="#333">EPS (NOK):</text>
  <text x="320" y="230" font-family="Arial, sans-serif" font-size="12" text-anchor="end" fill="#4caf50">12.45</text>
  
  <text x="70" y="250" font-family="Arial, sans-serif" font-size="10" fill="#666">vs. Q-1: ↗ 5.2%  |  vs. Q4 2023: ↗ 12.1%</text>
  

  <rect x="370" y="100" width="300" height="160" fill="white" stroke="#2196f3" stroke-width="2" rx="8" filter="url(#shadow)"/>
  <rect x="370" y="100" width="300" height="30" fill="#2196f3" rx="8"/>
  <text x="520" y="120" font-family="Arial, sans-serif" font-size="14" font-weight="bold" text-anchor="middle" fill="white">
    Effektivitetsmål
  </text>
  

  <text x="390" y="150" font-family="Arial, sans-serif" font-size="12" font-weight="bold" fill="#333">Vareomløpshastighet:</text>
  <text x="640" y="150" font-family="Arial, sans-serif" font-size="12" text-anchor="end" fill="#ff9800">4.2x</text>
  
  <text x="390" y="170" font-family="Arial, sans-serif" font-size="12" font-weight="bold" fill="#333">Fordringer omløpstid:</text>
  <text x="640" y="170" font-family="Arial, sans-serif" font-size="12" text-anchor="end" fill="#4caf50">28 dager</text>
  
  <text x="390" y="190" font-family="Arial, sans-serif" font-size="12" font-weight="bold" fill="#333">Leverandørgjeld betalingstid:</text>
  <text x="640" y="190" font-family="Arial, sans-serif" font-size="12" text-anchor="end" fill="#4caf50">35 dager</text>
  
  <text x="390" y="210" font-family="Arial, sans-serif" font-size="12" font-weight="bold" fill="#333">Working Capital ratio:</text>
  <text x="640" y="210" font-family="Arial, sans-serif" font-size="12" text-anchor="end" fill="#4caf50">1.8</text>
  
  <text x="390" y="230" font-family="Arial, sans-serif" font-size="12" font-weight="bold" fill="#333">Asset turnover:</text>
  <text x="640" y="230" font-family="Arial, sans-serif" font-size="12" text-anchor="end" fill="#4caf50">1.3x</text>
  
  <text x="390" y="250" font-family="Arial, sans-serif" font-size="10" fill="#666">vs. Q-1: ↗ 2.1%  |  vs. bransje: ↗ Above avg</text>
  

  <rect x="50" y="280" width="300" height="140" fill="white" stroke="#4caf50" stroke-width="2" rx="8" filter="url(#shadow)"/>
  <rect x="50" y="280" width="300" height="30" fill="#4caf50" rx="8"/>
  <text x="200" y="300" font-family="Arial, sans-serif" font-size="14" font-weight="bold" text-anchor="middle" fill="white">
    Likviditetsmål
  </text>
  

  <text x="70" y="330" font-family="Arial, sans-serif" font-size="12" font-weight="bold" fill="#333">Current ratio:</text>
  <text x="320" y="330" font-family="Arial, sans-serif" font-size="12" text-anchor="end" fill="#4caf50">2.1</text>
  
  <text x="70" y="350" font-family="Arial, sans-serif" font-size="12" font-weight="bold" fill="#333">Quick ratio:</text>
  <text x="320" y="350" font-family="Arial, sans-serif" font-size="12" text-anchor="end" fill="#4caf50">1.4</text>
  
  <text x="70" y="370" font-family="Arial, sans-serif" font-size="12" font-weight="bold" fill="#333">Operasjonell kontantstrøm:</text>
  <text x="320" y="370" font-family="Arial, sans-serif" font-size="12" text-anchor="end" fill="#4caf50">NOK 45M</text>
  
  <text x="70" y="390" font-family="Arial, sans-serif" font-size="12" font-weight="bold" fill="#333">Fri kontantstrøm:</text>
  <text x="320" y="390" font-family="Arial, sans-serif" font-size="12" text-anchor="end" fill="#4caf50">NOK 32M</text>
  
  <text x="70" y="410" font-family="Arial, sans-serif" font-size="10" fill="#666">vs. Q-1: ↗ 8.5%  |  vs. Q4 2023: ↗ 15.2%</text>
  

  <text x="520" y="320" font-family="Arial, sans-serif" font-size="18" font-weight="bold" fill="#2c3e50">
    Operasjonelle KPIer
  </text>
  

  <rect x="370" y="340" width="300" height="140" fill="white" stroke="#ff9800" stroke-width="2" rx="8" filter="url(#shadow)"/>
  <rect x="370" y="340" width="300" height="30" fill="#ff9800" rx="8"/>
  <text x="520" y="360" font-family="Arial, sans-serif" font-size="14" font-weight="bold" text-anchor="middle" fill="white">
    Kunde &amp; Marked
  </text>
  

  <text x="390" y="390" font-family="Arial, sans-serif" font-size="12" font-weight="bold" fill="#333">Kundetilfredshet (NPS):</text>
  <text x="640" y="390" font-family="Arial, sans-serif" font-size="12" text-anchor="end" fill="#4caf50">68</text>
  
  <text x="390" y="410" font-family="Arial, sans-serif" font-size="12" font-weight="bold" fill="#333">Markedsandel:</text>
  <text x="640" y="410" font-family="Arial, sans-serif" font-size="12" text-anchor="end" fill="#4caf50">24.5%</text>
  
  <text x="390" y="430" font-family="Arial, sans-serif" font-size="12" font-weight="bold" fill="#333">Kunde oppbevaringsrate:</text>
  <text x="640" y="430" font-family="Arial, sans-serif" font-size="12" text-anchor="end" fill="#4caf50">87%</text>
  
  <text x="390" y="450" font-family="Arial, sans-serif" font-size="12" font-weight="bold" fill="#333">Ny kunder (antall):</text>
  <text x="640" y="450" font-family="Arial, sans-serif" font-size="12" text-anchor="end" fill="#4caf50">1,245</text>
  
  <text x="390" y="470" font-family="Arial, sans-serif" font-size="10" fill="#666">vs. Q-1: ↗ 3.2%  |  vs. mål: ↗ 102%</text>
  

  <text x="400" y="520" font-family="Arial, sans-serif" font-size="18" font-weight="bold" text-anchor="middle" fill="#2c3e50">
    KPI Trendutvikling (Siste 4 Kvartaler)
  </text>
  

  <rect x="100" y="540" width="600" height="120" fill="white" stroke="#ddd" stroke-width="1" rx="5"/>
  

  <line x1="130" y1="570" x2="130" y2="640" stroke="#333" stroke-width="2"/>
  <line x1="130" y1="640" x2="670" y2="640" stroke="#333" stroke-width="2"/>
  

  <text x="200" y="655" font-family="Arial, sans-serif" font-size="10" text-anchor="middle" fill="#666">Q1 2024</text>
  <text x="350" y="655" font-family="Arial, sans-serif" font-size="10" text-anchor="middle" fill="#666">Q2 2024</text>
  <text x="500" y="655" font-family="Arial, sans-serif" font-size="10" text-anchor="middle" fill="#666">Q3 2024</text>
  <text x="650" y="655" font-family="Arial, sans-serif" font-size="10" text-anchor="middle" fill="#666">Q4 2024</text>
  

  <path d="M 200 620 L 350 610 L 500 595 L 650 585" stroke="#2196f3" stroke-width="3" fill="none" filter="url(#shadow)"/>
  <text x="180" y="615" font-family="Arial, sans-serif" font-size="8" fill="#2196f3">Omsetning</text>
  

  <path d="M 200 610 L 350 600 L 500 590 L 650 580" stroke="#4caf50" stroke-width="3" fill="none" filter="url(#shadow)"/>
  <text x="180" y="605" font-family="Arial, sans-serif" font-size="8" fill="#4caf50">Resultat</text>
  

  <path d="M 200 600 L 350 595 L 500 600 L 650 590" stroke="#ff9800" stroke-width="3" fill="none" filter="url(#shadow)"/>
  <text x="180" y="595" font-family="Arial, sans-serif" font-size="8" fill="#ff9800">Markedsandel</text>
  

  <circle cx="200" cy="620" r="3" fill="#2196f3"/>
  <circle cx="350" cy="610" r="3" fill="#2196f3"/>
  <circle cx="500" cy="595" r="3" fill="#2196f3"/>
  <circle cx="650" cy="585" r="3" fill="#2196f3"/>
  
  <circle cx="200" cy="610" r="3" fill="#4caf50"/>
  <circle cx="350" cy="600" r="3" fill="#4caf50"/>
  <circle cx="500" cy="590" r="3" fill="#4caf50"/>
  <circle cx="650" cy="580" r="3" fill="#4caf50"/>
  
  <circle cx="200" cy="600" r="3" fill="#ff9800"/>
  <circle cx="350" cy="595" r="3" fill="#ff9800"/>
  <circle cx="500" cy="600" r="3" fill="#ff9800"/>
  <circle cx="650" cy="590" r="3" fill="#ff9800"/>
  

  <text x="400" y="690" font-family="Arial, sans-serif" font-size="14" font-weight="bold" text-anchor="middle" fill="#2c3e50">
    Ytelsesindikatorstatuser
  </text>
  

  <circle cx="200" cy="680" r="8" fill="#4caf50"/>
  <text x="220" y="685" font-family="Arial, sans-serif" font-size="12" fill="#333">Over mål</text>
  
  <circle cx="320" cy="680" r="8" fill="#ff9800"/>
  <text x="340" y="685" font-family="Arial, sans-serif" font-size="12" fill="#333">På mål</text>
  
  <circle cx="430" cy="680" r="8" fill="#f44336"/>
  <text x="450" y="685" font-family="Arial, sans-serif" font-size="12" fill="#333">Under mål</text>
  
  <circle cx="560" cy="680" r="8" fill="#9e9e9e"/>
  <text x="580" y="685" font-family="Arial, sans-serif" font-size="12" fill="#333">Ingen data</text>
</svg>
